X:1
T:Danse Macabre
T:Saint-Saëns
T:Henri Cazalis
%%score 1 { ( 2 5 ) | ( 3 4 ) }
L:1/8
Q:1/4=195
M:3/4
K:Bb
V:1 treble nm="Voice"
V:2 treble nm="Piano"
V:5 treble 
V:3 bass 
V:4 bass 
V:1
"^Mouvement de valse" z6 | z6 | z6 | z6 | z6 | z6 | z6 | z6 | z2!f! G B G A | B2 A B G B | %10
w: ||||||||Zig et zig et|zig, La mort en ca-|
 A G G B G A | B2 A B G B | _A2 A c A B | c2 B c _A c | B _A A c A B | !wedge!c2 _A c B A | G2 | %17
w: den- ce Frap- pant u- ne|tombe a- vec son ta-|lon, La mort à mi-|nuit joue un air de|dan- se, Zig et zig et|zag, sur son vi- o-|lon|
 z4 | z6 | z6 | z6 | z6 | z6 | z6 | z6 | z2 z2 D2 | G2 G2 G2 | F4 F F | =E4 E2 | _E2 E z E2 | %30
w: ||||||||Le|vent d'hi- ver|souffle, et la|nuit est|som- bre~; Des|
 D2 =E2 G2 | ^F2 =E2 D2 | =E4 E2 | ^F4 D D | G4 G2 | F4 F2 | =E2 E2 E2 | _E2 E z E2 | D2 G2 B2 | %39
w: gé- mis- se-|ments sor- tent|des til-|leuls~; Les sque-|let- tes|blancs vont|à tra- vers|l'om- bre, Cou-|rant et sau-|
 A2 ^F2 D2 | ^F4 =E2 | D6 | z6 | z6 | z6 | z2 G B G A | B2 E G E F | G2 B, E B, D | E2 E E E E | %49
w: tant sous leurs|grands lin-|ceuls.||||Zig et zig et|zig, cha- cun se tré-|mousse, On en- tend cla-|quer les os des dan-|
 D4 z2 | z6 | z6 | z6 | z2 G B G A | B2 E G E F | G G B, E B, D | E2 E E E E | D6 | z6 | z6 | z6 | %61
w: seurs||||Un cou- ple las-|cif s'as- seoit sur la|mous- se, Com- me pour goû-|ter d'an- cien- nes dou-|ceurs.||||
 z2 G B G A | !wedge!B2 A B G B | A G G B G A | B2 A B G B | _A2 A c A B | c2 B c _A c | %67
w: Zig et zig et|zig, la mort con- ti-|nu- e De ra- cler sans|fin son aigre ins- tru-|ment. Un voile est tom-|bé~! La dan- seuse est|
 B _A A c A B | c2 _A c B A | G2 | z2 z2 | z6 | z6 | z6 | z6 | z6 | z6 | z6 | z2 z2 D2 | G2 G3 G | %80
w: nu- e, son dan- seur la|serre a- mou- reu- se-|ment.|||||||||La|dame est, dit-|
 F4 F2 | =E4 E E | _E2 E z E2 | D2 =E2 G2 | (^F2 =E2) D2 | =E4 D E | ^F2 z2 D2 | G2 z2 G G | F6 | %89
w: on, mar-|quise ou ba-|ron- ne, Et|le vert ga-|lant _ un|pau- vre char-|ron~; Hor-|reurs~! et voi-|là|
 =E3 E E E | _E2 E z E2 | D2 G2 B2 | A2 ^F2 D2 | ^F4 =E2 | D6 | z6 | z6 | z6 | z2 G B G A | %99
w: qu'el- le s'a- ban-|don- ne Com-|me si le|rustre é- tait|un ba-|ron.||||Zig et zig et|
 B2 A B G B | A G G B G A | B2 A B G B | _A2 A c A B | c2 B c _A c | B _A A c A B | c2 _A c B A | %106
w: zig, quel- le sa- ra-|ban- de~! Quels cer- cles de|morts se don- nant la|main~! Zig et zig et|zag, on voit dans la|ban- de Le roi gam- ba-|der au- près du vi-|
 G2 | z4 | z6 | z6 | z6 | z2 z2!p! E2 | E2 z2 E E | E2 z2 E2 | E4 E E | (E2 E) z E E | E2 z2 E2 | %117
w: lain.|||||Mais|psit~! tout à|coup on|quit- te la|ron- de, On se|pousse, on|
 E2 z2 E2 | E2 E2 E2 | E2 z4 | z6 | z6 | z6 | d6 | B2 A2 G2 | G6- | G2 z4 | B6 | G2 F2 E2 | E6 | %130
w: fuit, le|coq a chan-|té.||||Oh~!|la bel- le|nuit|_|pour|le pau- vre|mon-|
 E2 z4 | z2 z2 E2 | _A2 B2 c2 | !>!e6 | E3 E EE | D6- | D6 | z6 | z6 | z6 |] %140
w: de,|Et|vi- vent la|mort|et l'é- ga- li-|té~!|_||||
V:2
!f! !>![Ae]6 | !>![DA]6 | !>![Ae]4 [Ae]2 | !>![DA]4 [DA]2 |!>(! [Ae]!>)![Ae] .[Ae]2 .[DA]2 | %5
!>(! [Ae]!>)![Ae] .[Ae]2 .[DA]2 | [Ae]2 [DA]2 [Ae]2 | [DA]2 [Ae]2 [D^FAd]2 | [GBdg]2 x4 | z6 | z6 | %11
 z6 | z6 | z6 | z6 | z6 | z2 | .g.b!ff!.g.a | !>!.b2 .a.b.g.b | (.Ta.g) .g.b.g.a | %20
 !>!.b2 .a.b.g.b | !>!_a2 .a.c'.a.b | !>!.c'2 .b.c'._a.c' | (.Tb._a) .a.c'.a.b | %24
 !>!c'2 ._a.c'.b.a | .[Bg]2 z4 | z2 .[B,DG]2 .[G,B,D]2 | z6 | z6 | z6 | z6 | z6 | x2 [A,^C=E]2 x2 | %33
 x2 [A,D^F]2 x2 | z2 .[B,DG]2 .[G,B,D]2 | z2 .[B,DF]2 z2 | x6 | x6 | x6 | z4 .[A,D^F]2 | %40
 .[A,D^FA]2 z2 .[A,^C=EA]2 |!f! .D2 .d.^f.d.=e | !>!^f2 .=e.=f.d.f | (T=ed) .d.^f.d.e | %44
 ^f2 .=e.f.d.f | !>![B_eg]2 .[B,EG]2 .[G,B,E]2 | z2 .[B,EG]2 .[G,B,E]2 | z2 .[B,EG]2 .[G,B,E]2 | %48
 z2 .[B,EG]2 .[G,B,E]2 | z2 .d.^f.d.=e | !>!^f2 =e.f.d.f | (T=ed) .d.^f.d.e | ^f2 .=e.f.d.f | %53
 !>![B_eg]2!p! .[B,EG]2 .[G,B,E]2 | z2 .[B,EG]2 .[G,B,E]2 | z2 .[B,EG]2 .[G,B,E]2 | %56
 z2 .[B,EG]2 .[G,B,E]2 |!f! [A,D^F]2 z2 z2 | !>![Ae]2 x2 x2 | .[Ae]2 .[DA]2 .[Ae]2 | %60
 .[DA]2 .[Ae]2 !>![D^FAd]2 | !>![GBdg]2 x4 | z6 | z6 | z6 | z6 | z6 | z6 | z6 | z2 | %70
!8va(! [gg'][bb'][gg'][aa'] | [bb']2 [aa'][bb'][gg'][bb'] | ([aa'][gg']) [gg'][bb'][gg'][aa'] | %73
 [bb']2 [aa'][bb'][gg'][bb'] | [_a_a']2 [aa'][c'c''] [aa'][bb'] | %75
 [c'c'']2 [bb'][c'c''] [_a_a'][c'c''] | [bb'][_a_a'] [aa'][c'c''] [aa'][bb'] | %77
 [c'c'']2 [_a_a'][c'c''] [bb'][aa']!8va)! | [Gg]2 z4 |!p! z2 .[B,DG]2 .[G,B,D]2 | z6 | z6 | z6 | %83
 z6 | z6 | x2 [A,^C=E]2 x2 | x2 [A,D^F]2 x2 | z2 .[B,DG]2 .[G,B,D]2 | z2 .[B,DF]2 z2 | x6 | x6 | %91
 x6 | z4 .[A,D^F]2 | .[A,D^FA]2 z2 .[A,^C=EA]2 | .D2 z2!f! .[DA]2 | %95
!>(! [Ae]!>)![Ae] .[Ae]2 .[DA]2 | .[Ae] x .[Ae] x .[Ae] x | .[Ae]2 .[DA]2 !>![D^FAd]2 | %98
 !>![GBdg]2 x4 | x6 | x6 | x6 | !trill(!!>!TE6- | E6- | E6- | !trill)!E6 |{DE} x z | %107
 [GBdg][Bb][Gg][Aa] | [Bb]2 [Aa][Bb][Gg][Bb] | [Aa]2 [GBdg][Bb][Gg][Aa] | [Bb]2 [Aa][Bb][Gg][Bb] | %111
 z6 | z6 | z6 | z6 | z6 x2 | z2 .G.B .G.A | .B2 .e.g .e.f | g2 .e'.g' .e'.f' | .g'2 z4 | %120
!<(! [EG]6 | [EG]6!<)! | [EG]6 |!f! [DG]6- | [DG]6- | [DG]6 |!p! [DG]6 |!f! [EG]6- | [EG]6- | %129
 [EG]6 | [EG]6 | !wedge![E_Ae]2 z4 | z6 | z6 | z6 | z6 | z6 | z6 | !^![D^FAd]2 z4 | %139
 !^![GBdg]2 z4 |] %140
V:3
 z6 | z6 | z6 | z6 | z6 | z6 | z6 | x6 | x2!p! .[G,B,]2 .D,2 | z2 .[G,B,]2 .D,2 | %10
 z2 .[G,B,]2 .D,2 | z2 .[G,B,]2 .D,2 | z2 .[_A,C]2 .E,2 | z2 .[_A,C]2 .E,2 | z2 .[_A,C]2 .E,2 | %15
 z2 .[_A,C]2 .E,2 | .G,,2 | z2 z2 | .G,2 x4 | .G,2 x4 | .G,2 x4 | .F,2 x4 | .F,2 x4 | .F,2 x4 | %24
 .F,2 x4 | z2!p! .[G,B,]2 .D,2 | .G,,2 x4 | x2 .[B,DF]2 .[F,B,D]2 | x2 .[G,B,=E]2 .[=E,G,B,]2 | %29
 x2 .[G,B,_E]2 .[E,G,B,]2 | x2 .[G,B,D]2 .[D,G,B,]2 | x2 .[A,D]2 .[^F,B,]2 | x2 x2 .[=E,A,^C]2 | %33
 x2 x2 .[^F,A,D]2 | .G,,2 x4 | x2 x2 .[F,B,D]2 | x2 .[G,B,=E]2 .[=E,G,B,]2 | %37
 x2 .[G,B,_E]2 .[_E,G,B,]2 | x2 .[G,B,D]2 .[D,G,B,]2 | x2 .[^F,A,D]2 x2 | .A,,2 x2 .A,,2 | %41
 .[D,,D,]2 .[D^F]2 .A,2 | .D,2 .[D^F]2 .A,2 | .D,2 .[D^F]2 .A,2 | .D,2 .[D^F]2 .A,2 | %45
 !>![C,,C,]2!p! z4 | .[C,,C,]2 z2 z2 | .[C,,C,]2 z2 z2 | .[C,,C,]2 z2 z2 | .[D,,D,]2 x2 x2 | %50
 .D,2 x2 x2 | .D,2 x2 x2 | .D,2 z2 .A,2 | !>![C,,C,]2 z4 | .[C,,C,]2 z2 z2 | .[C,,C,]2 z2 z2 | %56
 .[C,,C,]2 z2 z2 | [D,,D,]2 z4 | z6 | z6 | x6 | x2!p! .[G,B,]2 .D,2 | z2 .[G,B,]2 .D,2 | %63
 z2 .[G,B,]2 .D,2 | z2 .[G,B,]2 .D,2 | z2 .[_A,C]2 .E,2 | z2 .[_A,C]2 .E,2 | z2 .[_A,C]2 .E,2 | %68
 z2 .[_A,C]2 .E,2 | [G,,,G,,]2 | [G,B,D]2 [D,G,B,]2 | [G,,,G,,]2 [G,B,D]2 [D,G,B,]2 | %72
 [G,,,G,,]2 [G,B,D]2 [D,G,B,]2 | [G,,,G,,]2 [G,B,D]2 [D,G,B,]2 | [F,,,F,,]2 [_A,CE]2 [F,A,C]2 | %75
 [F,,,F,,]2 [_A,CE]2 [F,A,C]2 | [F,,,F,,]2 [_A,CE]2 [F,A,C]2 | [F,,,F,,]2 [_A,CE]2 [F,A,C]2 | %78
 [G,,,G,,]2 [G,B,D]2 [D,G,B,]2 | .G,,2 x4 | x2 .[B,DF]2 .[F,B,D]2 | x2 .[G,B,=E]2 .[=E,G,B,]2 | %82
 x2 .[G,B,_E]2 .[E,G,B,]2 | x2 .[G,B,D]2 .[D,G,B,]2 | x2 .[A,D]2 .[^F,B,]2 | x2 x2 .[=E,A,^C]2 | %86
 x2 x2 .[^F,A,D]2 | .G,,2 x4 | x2 x2 .[F,B,D]2 | x2 .[G,B,=E]2 .[=E,G,B,]2 | %90
 x2 .[G,B,_E]2 .[_E,G,B,]2 | x2 .[G,B,D]2 .[D,G,B,]2 | x2 .[^F,A,D]2 x2 | .A,,2 x2 .A,,2 | %94
 .[D,,D,]2 z4 | z6 | z6 | x6 | x2!p! .[G,B,]2 .D,2 | z2 .[G,B,]2 .D,2 | z2 .[G,B,]2 .D,2 | %101
 z2 .[G,B,]2 .D,2 | z2 .[_A,C]2 .F,2 | z2 .[_A,C]2 .F,2 | z2 .[_A,C]2 .F,2 | z2 .[_A,C]2 .F,2 | %106
!ff! [G,,,G,,]2 | [D,G,B,D]2 [D,G,B,D]2 | [G,,,G,,]2 [D,G,B,D]2 [D,G,B,D]2 | %109
 [G,,,G,,]2 [D,G,B,D]2 [D,G,B,D]2 | [G,,,G,,]2 [D,G,B,D]2 [D,G,B,D]2 |!p! !>![E,E]6- | [E,E]6- | %113
 [E,E]6- | [E,E]6 |!pp! z2 .G,.B,.G,.A, x2 | B,2 x4 | !//-!^C,,3 E,,3 | !//-!^C,,3 E,,3 | %119
 ^C,,2 z z z2 | [G,B,]6 | [G,B,]6 | [G,B,]6 | [G,B,]6- | [G,B,]6- | [G,B,]6 | [G,B,]6 | [G,B,]6- | %128
 [G,B,]6- | [G,B,]6 | [G,B,]6 | !wedge![C,,C,]2 z4 | z6 | z6 | z6 | z2!f! .G,,.B,, .A,,.B,, | %136
 (!>!A,,G,,) .G,,.A,, .B,,.G,, | !>!.D,2 z4 | !^![D,,^F,,A,,D,]2 z4 | !^![G,,,B,,,D,,G,,]2 z4 |] %140
V:4
 x6 | x6 | x6 | x6 | x6 | x6 | x6 | z4 [D,,^F,,A,,D,]2 | !>![G,,,B,,,D,,G,,]2 z2 z2 | %9
 !>!G,,2 z2 z2 | !>!G,,2 z2 z2 | !>!G,,2 z2 z2 | .F,,2 z2 z2 | .F,,2 z2 z2 | .F,,2 z2 z2 | %15
 .F,,2 z2 z2 | x2 | x4 | x6 | x6 | x6 | x6 | x6 | x6 | x6 | x6 | x6 | .G,,2 x4 | .G,,2 x4 | %29
 .G,,2 x4 | .G,,2 x4 | .A,,2 x4 | .A,,2 x4 | .[D,,D,]2 x4 | x6 | .G,,2 x4 | .G,,2 x4 | .G,,2 x4 | %38
 .G,,2 x4 | .A,,2 x4 | x6 | x6 | x6 | x6 | x6 | x6 | x6 | x6 | x6 | x6 | x6 | x6 | x6 | x6 | x6 | %55
 x6 | x6 | x6 | x6 | x6 | z4 !>![D,,^F,,A,,D,]2 | !>![G,,,B,,,D,,G,,]2 z2 z2 | .G,,2 z2 z2 | %63
 !>!G,,2 z2 z2 | !>!G,,2 z2 z2 | .F,,2 z2 z2 | .F,,2 z2 z2 | .F,,2 z2 z2 | .F,,2 z2 z2 | x2 | x4 | %71
 x6 | x6 | x6 | x6 | x6 | x6 | x6 | x6 | x6 | .G,,2 x4 | .G,,2 x4 | .G,,2 x4 | .G,,2 x4 | %84
 .A,,2 x4 | .A,,2 x4 | .[D,,D,]2 x4 | x6 | .G,,2 x4 | .G,,2 x4 | .G,,2 x4 | .G,,2 x4 | .A,,2 x4 | %93
 x6 | x6 | x6 | x6 | z4 !>![D,,^F,,A,,D,]2 | !>![G,,,B,,,D,,G,,]2 z2 z2 | .G,,2 z2 z2 | %100
 !>!G,,2 z2 z2 | !>!G,,2 z2 z2 | .F,,2 z2 z2 | .F,,2 z2 z2 | .F,,2 z2 z2 | .F,,2 z2 z2 | x2 | x4 | %108
 x6 | x6 | x6 | x6 | x6 | x6 | x6 | !//-!^C,,3 x2 .E,,3 | !//-!^C,,3 E,,3 | x6 | x6 | x6 | %120
 [^C,,^C,]6 | [^C,,^C,]6 | [^C,,^C,]6 | [D,,D,]6- | [D,,D,]6- | [D,,D,]6 | [D,,D,]6 | [D,,D,]6- | %128
 [D,,D,]6- | [D,,D,]6 | [D,,D,]6 | x6 | x6 | x6 | x6 | z2 .G,,,.B,,, .A,,,.B,,, | %136
 (!>!A,,,G,,,) .G,,,.A,,, .B,,,.G,,, | !>!.B,,,2 z4 | x6 | x6 |] %140
V:5
 x6 | x6 | x6 | x6 | x6 | x6 | x6 | x6 | x6 | x6 | x6 | x6 | x6 | x6 | x6 | x6 | z2 | .[GB]2 .D2 | %18
 x2 .[GB]2 .D2 | x2 .[GB]2 .D2 | x2 .[GB]2 .D2 | z2 .[_Ac]2 .E2 | x2 .[_Ac]2 .E2 | x2 .[_Ac]2 .E2 | %24
 z2 .[_Ac]2 .E2 | .[G,D]2 z4 | x6 | x6 | x6 | x6 | x6 | x6 | x6 | x6 | x6 | x6 | x6 | x6 | x6 | %39
 x6 | x6 | x6 | x6 | x6 | x6 | x6 | x6 | x6 | x6 | z2 .[D^F]2 .A,2 | x2 .[D^F]2 .A,2 | %51
 z2 .[D^F]2 .A,2 | x2 .[D^F]2 x2 | x6 | x6 | x6 | x6 | x2 [DA][DA][DA][DA] | x2 [DA][DA][DA][DA] | %59
 x6 | x6 | x6 | x6 | x6 | x6 | x6 | x6 | x6 | x6 | x2 |!8va(! x4 | x6 | x6 | x6 | x6 | x6 | x6 | %77
 x6!8va)! | x6 | x6 | x6 | x6 | x6 | x6 | x6 | x6 | x6 | x6 | x6 | x6 | x6 | x6 | x6 | x6 | x6 | %95
 x6 | x .[DA] x .[DA] x .[DA] | x6 | x6 | x6 | x6 | x6 | x6 | x6 | x6 | x6 | x2 | x4 | x6 | x6 | %110
 x6 | x6 | x6 | x6 | x6 | x8 | x6 | x6 | x6 | x6 | x6 | x6 | x6 | x6 | x6 | x6 | x6 | x6 | x6 | %129
 x6 | x6 | x6 | x6 | x6 | x6 | x6 | x6 | x6 | x6 | x6 |] %140

